X: 1
T: John Crossey
M: 4/4
L: 1/8
R: reel
K: Dmaj
|:A2FA DAFA|A2FA DAFA|B2GB EBGB|B2GB EBGB|
A2FA DAFA|A2FA DAFA|GABc dfed|1 fdec dBAF:|2 fdec defg||
|:f2df Afdf|f2df Afdf|g2cg Bgcg|B3d dBcA|
f2df Afdf|f2df Afdf|gfed dBcA|GFEF D4:||
